!!!OTL@@DE: An den Mond
!!!ONB: Volkslied um 1800 bekannt
!!!ODT: ~1800
!!!OMD: Andante
!!!LDT: 1804
!!!OCL: Erk, Ludwig
!!!GCO: Deutscher Liederschatz, Band 1
**kern	**kern	**kern
*staff3	*staff2	*staff1
*Ipiano	*Ipiano	*Ivox
*>[A,A,B]	*>[A,A,B]	*>[A,A,B]
*>norep[A,B]	*>norep[A,B]	*>norep[A,B]
*>A	*>A	*>A
*clefF4	*clefG2	*clefG2
*k[f#c#g#d#]	*k[f#c#g#d#]	*k[f#c#g#d#]
*E:	*E:	*E:
*met(C)	*met(C)	*met(C)
*M4/4	*M4/4	*M4/4
*MM84	*MM84	*MM84
4r	(8g#/ 8b/L	8b/
.	8f#/) 8a/J	8a/
=1	=1	=1
4E\ 4B\	4e/ 4g#/	4g#/
4r	4e/ 4g#/	4g#/
4E\ 4B\	(8e/ 8g#/L	(8g#/L
.	8f#/ 8a/	8a/
4r	8g#/ 8b/	8b/J)
.	8a/) 8cc#/J	8cc#\
=2	=2	=2
4BB\ 4B\	(8g#/ 8b/L	(8b/L
.	8f#/) 8a/J	8a/J)
4B\	4d#/ 4f#/	4f#/
4B\	4r	4r
4D#\ 4B\	(8g#/ 8b/L	8b/
.	8f#/) 8a/J	8a/
=3	=3	=3
4E\ 4B\	4e/ 4g#/	4g#/
4G#\	4B/ 4e/ 4g#/	4g#/
4BB\	8B/ 8d#/ (8f#/L	8f#/L
.	8e/)	8e/J
4BB\	8B/ 8d#/ (8f#/	8f#/L
.	8g#/J)	8g#/J
=4	=4	=4
*^	*	*
2G#/	4E\	2B/ 2e/	2e/
.	4BB\	.	.
4r	4EE\	4r	4r
*v	*v	*	*
=:|!	=:|!	=:|!
*>B	*>B	*>B
4r	(8d#/ 8f#/L	8f#/
.	8e/) 8g#/J	8g#/
=5	=5	=5
*^	*	*
4r	4r	4f#/ 4a/	4a/
8.D#/L	2BB\	4B/ 4f#/	4f#/
16F#/Jk	.	.	.
4B/	.	4r	4r
4r	4r	(8e/ 8g#/L	8g#/
.	.	8f#/) 8a/J	8a/
=6	=6	=6	=6
4r	4r	4g#/ 4b/	4b\
8.G#/L	2E\	4e/ 4g#/	4g#/
16B/Jk	.	.	.
4e/	.	4r	4r
4r	4r	[8g#\ 8b\L	8b\
.	.	8g#\] 8b\ 8ee\J	8ee\
*v	*v	*	*
=7	=7	=7
4r	4.a\ 4.cc#\	4.cc#\
4E\	.	.
.	8g#/ 8b/	8b\
4.AA/	(8a/ 8cc#/L	8cc#\L
.	8g#/ 8b/	8b\J
.	8f#/ 8a/	8a/L
8AA#/	8e/) 8g#/J	8g#/J
=8	=8	=8
4BB/	(4e/ 4g#/	(4g#/
4BBB/	4d#/) 4f#/	4f#/)
4BB/	4r	4r
4r	(8d#/ 8b/L	8b/
.	8f#/) 8a/J	8a/
=9	=9	=9
4E\ 4B\	4e/ 4g#/	4g#/
4r	4e/ 4g#/	4g#/
4E\ 4B\	(8e/ 8g#/L	(8g#/L
.	8f#/ 8a/	8a/
4r	8g#/ 8b/	8b/J)
.	8a/) 8cc#/J	8cc#\
=10	=10	=10
4BB\ 4B\	(8g#/ 8b/L	(8b/L
.	8f#/) 8a/J	&(8a/J&))
4B\	4d#/ 4f#/	4f#/
4B\	4r	4r
4D#\ 4B\	(8g#/ 8b/L	8b/
.	8f#/) 8a/J	8a/
=11	=11	=11
4E\ 4B\	4e/ 4g#/	4g#/
4G#\	4B/ 4e/ 4g#/	4g#/
4BB\	8B/ 8d#/ (8f#/L	8f#/L
.	8e/J)	8e/J
4BB\	8B/ 8d#/ (8f#/L	8f#/L
.	8g#/J)	8g#/J
=12	=12	=12
*^	*	*
2G#/	4E\	2B/ 2e/	2e/
.	4BB\	.	.
4r	4EE\	4r	4r
*v	*v	*	*
==	==	==
*-	*-	*-
!!!ENC: Craig Stuart Sapp
!!!END: 2004/06/02/
!!!EFL: 051/651
